build/img/icon/icon_advantages_350.svg

<svg width="103" height="53" viewBox="0 0 103 53" fill="none" xmlns="http://www.w3.org/2000/svg">
<path d="M10.0298 22.2896H14.7793C16.582 22.2896 17.8994 21.6655 18.7314 20.4175C19.5866 19.1463 20.0142 17.4591 20.0142 15.356C20.0142 13.3452 19.575 11.7852 18.6968 10.6758C17.8416 9.54329 16.686 8.97705 15.23 8.97705C13.8664 8.97705 12.7454 9.50863 11.8672 10.5718C11.012 11.6349 10.5845 12.9754 10.5845 14.5933H0.773438C0.773438 11.9585 1.37435 9.60107 2.57617 7.521C3.80111 5.41781 5.49984 3.77686 7.67236 2.59814C9.868 1.41943 12.2948 0.830078 14.9526 0.830078C19.5981 0.830078 23.2383 2.11279 25.873 4.67822C28.5078 7.24365 29.8252 10.7567 29.8252 15.2173C29.8252 17.5054 29.2243 19.6317 28.0225 21.5962C26.8438 23.5376 25.2837 25.0283 23.3423 26.0684C25.7228 27.0853 27.4909 28.6107 28.6465 30.6445C29.8252 32.6784 30.4146 35.082 30.4146 37.8555C30.4146 42.3392 28.9816 45.9331 26.1157 48.6372C23.2729 51.3413 19.5288 52.6934 14.8833 52.6934C10.5614 52.6934 7.04834 51.3644 4.34424 48.7065C1.66325 46.0256 0.322754 42.5125 0.322754 38.1675H10.1338C10.1338 39.9702 10.6076 41.484 11.5552 42.709C12.5028 43.9339 13.7046 44.5464 15.1606 44.5464C16.8478 44.5464 18.1768 43.9224 19.1475 42.6743C20.1413 41.4263 20.6382 39.7622 20.6382 37.6821C20.6382 32.7131 18.7083 30.217 14.8486 30.1938H10.0298V22.2896ZM38.2148 27.1777L40.7109 1.52344H65.1519V9.91309H48.7539L47.8525 20.7295C49.7477 19.4583 51.7007 18.8228 53.7114 18.8228C57.8716 18.8228 61.0726 20.3019 63.3145 23.2603C65.5794 26.2186 66.7119 30.4019 66.7119 35.8101C66.7119 40.8716 65.3714 44.9508 62.6904 48.0479C60.0094 51.1449 56.4271 52.6934 51.9434 52.6934C49.2855 52.6934 46.8241 52.0693 44.5591 50.8213C42.2941 49.5501 40.5029 47.7936 39.1855 45.5518C37.8913 43.3099 37.2326 40.7676 37.2095 37.9248H46.9165C47.0783 40.028 47.5983 41.6574 48.4766 42.813C49.3548 43.9686 50.4873 44.5464 51.874 44.5464C53.4919 44.5464 54.7399 43.7721 55.6182 42.2236C56.4964 40.652 56.9355 38.3177 56.9355 35.2207C56.9355 32.3086 56.404 30.113 55.3408 28.6338C54.3008 27.1546 52.8332 26.415 50.938 26.415C49.089 26.415 47.6561 27.0506 46.6392 28.3218L46.0151 29.1885L38.2148 27.1777ZM102.455 31.1299C102.455 38.1097 101.183 43.4486 98.6411 47.1465C96.1219 50.8444 92.5164 52.6934 87.8247 52.6934C83.1792 52.6934 79.5853 50.9022 77.043 47.3198C74.5238 43.7144 73.2179 38.5604 73.1255 31.8579V22.3242C73.1255 15.3675 74.3851 10.0518 76.9043 6.37695C79.4235 2.67904 83.0405 0.830078 87.7554 0.830078C92.4702 0.830078 96.0872 2.65592 98.6064 6.30762C101.126 9.95931 102.408 15.1711 102.455 21.9429V31.1299ZM92.6089 20.9028C92.6089 16.9276 92.216 13.9461 91.4302 11.9585C90.6444 9.97087 89.4194 8.97705 87.7554 8.97705C84.6353 8.97705 83.0174 12.6172 82.9019 19.8975V32.4819C82.9019 36.5496 83.2948 39.5773 84.0806 41.5649C84.8895 43.5526 86.1375 44.5464 87.8247 44.5464C89.4194 44.5464 90.5981 43.6219 91.3608 41.7729C92.1466 39.9009 92.5627 37.0465 92.6089 33.21V20.9028Z" fill="url(#paint0_linear)"/>
<defs>
<linearGradient id="paint0_linear" x1="-2" y1="3" x2="21.4754" y2="70.4479" gradientUnits="userSpaceOnUse">
<stop stop-color="#D10A42"/>
<stop offset="1" stop-color="#0041CA"/>
</linearGradient>
</defs>
</svg>

<svg width="103" height="53" fill="none" xmlns="http://www.w3.org/2000/svg"><path d="M10.03 22.29h4.75c1.802 0 3.12-.624 3.951-1.872.856-1.272 1.283-2.959 1.283-5.062 0-2.01-.439-3.57-1.317-4.68-.855-1.133-2.011-1.699-3.467-1.699-1.364 0-2.485.532-3.363 1.595-.855 1.063-1.283 2.403-1.283 4.021H.774c0-2.634.6-4.992 1.802-7.072C3.801 5.418 5.5 3.777 7.672 2.598 9.868 1.42 12.295.83 14.952.83c4.646 0 8.286 1.283 10.921 3.848 2.635 2.566 3.952 6.079 3.952 10.54 0 2.287-.6 4.414-1.802 6.378-1.18 1.942-2.74 3.432-4.68 4.472 2.38 1.017 4.148 2.543 5.303 4.576 1.18 2.034 1.769 4.438 1.769 7.212 0 4.483-1.433 8.077-4.3 10.781-2.842 2.704-6.586 4.056-11.232 4.056-4.322 0-7.835-1.329-10.539-3.986-2.68-2.681-4.021-6.194-4.021-10.54h9.81c0 1.803.475 3.317 1.422 4.542.948 1.225 2.15 1.837 3.606 1.837 1.687 0 3.016-.624 3.987-1.872.993-1.248 1.49-2.912 1.49-4.992 0-4.969-1.93-7.465-5.79-7.488H10.03V22.29zm28.185 4.888L40.71 1.523h24.44v8.39H48.755l-.901 10.817c1.895-1.272 3.848-1.907 5.858-1.907 4.16 0 7.362 1.479 9.604 4.437 2.264 2.959 3.397 7.142 3.397 12.55 0 5.062-1.34 9.14-4.022 12.238-2.68 3.097-6.263 4.645-10.747 4.645-2.657 0-5.119-.624-7.384-1.872a14.174 14.174 0 01-5.373-5.27c-1.295-2.241-1.953-4.783-1.977-7.626h9.707c.162 2.103.682 3.732 1.56 4.888.879 1.156 2.011 1.733 3.398 1.733 1.618 0 2.866-.774 3.744-2.322.878-1.572 1.317-3.906 1.317-7.003 0-2.912-.531-5.108-1.594-6.587-1.04-1.48-2.508-2.219-4.403-2.219-1.849 0-3.282.636-4.299 1.907l-.624.867-7.8-2.011zm64.24 3.952c0 6.98-1.272 12.319-3.814 16.017-2.52 3.697-6.125 5.546-10.816 5.546-4.646 0-8.24-1.79-10.782-5.373-2.52-3.606-3.825-8.76-3.918-15.462v-9.534c0-6.957 1.26-12.272 3.78-15.947C79.423 2.679 83.04.83 87.754.83s8.332 1.826 10.851 5.478c2.52 3.651 3.802 8.863 3.849 15.635v9.187zm-9.846-10.227c0-3.975-.393-6.957-1.179-8.944-.786-1.988-2.01-2.982-3.675-2.982-3.12 0-4.738 3.64-4.853 10.92v12.585c0 4.068.393 7.095 1.179 9.083.808 1.988 2.056 2.981 3.744 2.981 1.594 0 2.773-.924 3.536-2.773.786-1.872 1.202-4.727 1.248-8.563V20.903z" fill="url(#paint0_linear)"/><defs><linearGradient id="paint0_linear" x1="-2" y1="3" x2="21.475" y2="70.448" gradientUnits="userSpaceOnUse"><stop stop-color="#D10A42"/><stop offset="1" stop-color="#0041CA"/></linearGradient></defs></svg>
